X:69
T:Is Maith le Nora
R:slide
S:Dag Westling, who got it from Kevin Ryan and Marco Pollier
H:See also "The Road to Tralee", #35
M:6/8
L:1/8
K:D
ABA A2F | D2E F2G | ABA A2F | G3 B3 |
ABA A2F | D2E FED | E2D E2F | G3 B3 :|
|: AFA d2A | BAB d2B | AFA d2A | B3 d3 |
AFA d2A | BAB D2F | E2D E2F | G3 B3 :|
<end>
<start>
